build/img/arrow-down.svg

<svg width="16" height="10" viewBox="0 0 16 10" fill="none" xmlns="http://www.w3.org/2000/svg">
<path d="M2.26534 0.70689L2.08856 0.530114L1.91179 0.70689L0.823223 1.79545L0.646385 1.97229L0.823284 2.14907L7.90927 9.23018L8.08605 9.40684L8.26276 9.23012L15.3439 2.149L15.5207 1.97223L15.3439 1.79545L14.2553 0.70689L14.0785 0.530113L13.9018 0.70689L8.08355 6.5251L2.26534 0.70689Z" fill="#C8061B" stroke="#C8061B" stroke-width="0.5"/>
</svg>

<svg width="16" height="10" fill="none" xmlns="http://www.w3.org/2000/svg"><path d="M2.265.707L2.09.53l-.177.177-1.09 1.088-.177.177.177.177L7.91 9.23l.177.177.177-.177 7.08-7.081.178-.177-.177-.177-1.09-1.088-.177-.177-.176.177-5.818 5.818L2.265.707z" fill="#C8061B" stroke="#C8061B" stroke-width=".5"/></svg>
